Numix-GalliumOS/32/actions/image-auto-adjust.svg

<?xml version="1.0" encoding="UTF-8" standalone="no"?>
<svg
   xmlns:dc="http://purl.org/dc/elements/1.1/"
   xmlns:cc="http://creativecommons.org/ns#"
   xmlns:rdf="http://www.w3.org/1999/02/22-rdf-syntax-ns#"
   xmlns:svg="http://www.w3.org/2000/svg"
   xmlns="http://www.w3.org/2000/svg"
   xmlns:sodipodi="http://sodipodi.sourceforge.net/DTD/sodipodi-0.dtd"
   xmlns:inkscape="http://www.inkscape.org/namespaces/inkscape"
   width="32"
   height="32"
   viewBox="0 0 32 32"
   id="svg2"
   version="1.1"
   inkscape:version="0.91 r13725"
   sodipodi:docname="image-auto-adjust.svg">
  <metadata
     id="metadata18">
    <rdf:RDF>
      <cc:Work
         rdf:about="">
        <dc:format>image/svg+xml</dc:format>
        <dc:type
           rdf:resource="http://purl.org/dc/dcmitype/StillImage" />
        <dc:title />
      </cc:Work>
    </rdf:RDF>
  </metadata>
  <defs
     id="defs16" />
  <sodipodi:namedview
     pagecolor="#ffffff"
     bordercolor="#666666"
     borderopacity="1"
     objecttolerance="10"
     gridtolerance="10"
     guidetolerance="10"
     inkscape:pageopacity="0"
     inkscape:pageshadow="2"
     inkscape:window-width="1366"
     inkscape:window-height="704"
     id="namedview14"
     showgrid="true"
     inkscape:zoom="16"
     inkscape:cx="10.661697"
     inkscape:cy="17.212851"
     inkscape:window-x="0"
     inkscape:window-y="27"
     inkscape:window-maximized="1"
     inkscape:current-layer="svg2">
    <inkscape:grid
       type="xygrid"
       id="grid2995" />
  </sodipodi:namedview>
  <path
     inkscape:connector-curvature="0"
     id="path4157"
     style="fill:#e2b854;fill-opacity:1;fill-rule:nonzero;stroke:none"
     d="M 7.5061304,14.5 5.7552122,19.753894 0.5,21.50599 5.7552122,23.246108 7.5061304,28.5 9.2570512,23.246108 14.5,21.50599 9.2570512,19.753894 M 7.5061304,14.5" />
  <path
     inkscape:connector-curvature="0"
     id="path4159"
     style="fill:#e2b854;fill-opacity:1;fill-rule:nonzero;stroke:none"
     d="M 25.499996,7.4999998 23.999998,11.99762 19.5,13.503658 23.999998,15.002378 25.499996,19.5 27,15.002378 31.5,13.503658 27,11.99762 M 25.499996,7.4999998" />
  <path
     inkscape:connector-curvature="0"
     id="path4161"
     style="fill:#e2b854;fill-opacity:1;fill-rule:nonzero;stroke:none"
     d="M 19.499998,1 18.373422,4.3698074 15,5.4961534 18.373422,6.6224996 19.499998,10 20.62658,6.6224996 24,5.4961534 20.62658,4.3698074 M 19.499998,1" />
  <g
     id="g4171"
     transform="matrix(0.88859154,1.2804685,-1.2690402,0.89659371,41.723621,4.8812522)">
    <path
       style="opacity:1;fill:#5c6982;fill-opacity:1;stroke:none;stroke-width:0.5;stroke-linecap:round;stroke-linejoin:round;stroke-miterlimit:4;stroke-dasharray:none;stroke-opacity:1"
       d="m -7.9003906,16.000781 c -0.73015,-10e-4 -2.1015834,0.447585 -2.1006094,1.59961 C -10,18.783666 -8.6305406,19.2 -7.9003906,19.2 l 14.8005866,0 c 0.8864,0 1.599609,-0.713209 1.599609,-1.599609 0,-0.8864 -0.713209,-1.59961 -1.599609,-1.59961 z"
       id="rect4138"
       inkscape:connector-curvature="0"
       sodipodi:nodetypes="csssssc" />
    <path
       style="opacity:1;fill:#c59da1;fill-opacity:1;stroke:none;stroke-width:0.5;stroke-linecap:round;stroke-linejoin:round;stroke-miterlimit:4;stroke-dasharray:none;stroke-opacity:1"
       d="M -13.400391,16.000781 C -14.286791,16.000746 -15,16.713991 -15,17.600391 c 0,0.8864 0.713209,1.599641 1.599609,1.599609 l 5.5000004,-1.95e-4 C -8.4586656,19.199805 -9,18.462794 -9,17.600196 -9,16.737598 -8.4430406,16 -7.9003906,16.001 Z"
       id="rect4140"
       inkscape:connector-curvature="0"
       sodipodi:nodetypes="sssczcs" />
  </g>
</svg>

<svg xmlns="http://www.w3.org/2000/svg" viewBox="0 0 32 32">
 <path d="m 7.506 14.5 -1.751 5.254 -5.255 1.752 5.255 1.74 1.751 5.254 1.751 -5.254 5.243 -1.74 -5.243 -1.752 m -1.751 -5.254" style="fill:#e2b854;fill-opacity:1;stroke:none;fill-rule:nonzero"/>
 <path d="m 25.5 7.5 -1.5 4.498 -4.5 1.506 4.5 1.499 1.5 4.498 1.5 -4.498 4.5 -1.499 -4.5 -1.506 m -1.5 -4.498" style="fill:#e2b854;fill-opacity:1;stroke:none;fill-rule:nonzero"/>
 <path d="m 19.5 1 -1.127 3.37 -3.373 1.126 3.373 1.126 1.127 3.378 1.127 -3.378 3.373 -1.126 -3.373 -1.126 m -1.127 -3.37" style="fill:#e2b854;fill-opacity:1;stroke:none;fill-rule:nonzero"/>
 <g transform="matrix(0.88859154,1.2804685,-1.2690402,0.89659371,41.723621,4.8812522)">
  <path d="m -7.9 16 c -0.73 -0.001 -2.102 0.448 -2.101 1.6 c 0.001 1.183 1.37 1.6 2.101 1.6 l 14.801 0 c 0.886 0 1.6 -0.713 1.6 -1.6 0 -0.886 -0.713 -1.6 -1.6 -1.6 z" style="fill:#5c6982;opacity:1;fill-opacity:1;stroke:none"/>
  <path d="m -13.4 16 c -0.886 0 -1.6 0.713 -1.6 1.6 c 0 0.886 0.713 1.6 1.6 1.6 l 5.5 0 c -0.558 0 -1.1 -0.737 -1.1 -1.6 0 -0.863 0.557 -1.6 1.1 -1.599" style="fill:#c59da1;opacity:1;fill-opacity:1;stroke:none"/>
 </g>
</svg>
